icon-themes/breeze_svg/cmd/sc_framedialog.svg

<svg viewBox="0 0 16 16" xmlns="http://www.w3.org/2000/svg"><path d="m3 3v10h2v-1h-1v-8h8v3 4h1v-4-4zm4 9c-.5522847 0-1 .447723-1 1s.4477153 1 1 1 1-.447723 1-1-.4477153-1-1-1zm3 0c-.5522847 0-1 .447723-1 1s.4477153 1 1 1c.552285 0 1-.447723 1-1s-.447715-1-1-1zm3 0c-.552285 0-1 .447723-1 1s.447715 1 1 1 1-.447723 1-1-.447715-1-1-1z" fill="#4d4d4d"/><path d="m2 2v12h3v-1h-2v-10h10v8h1v-4-5z" fill="#f47750"/></svg>

<svg xmlns="http://www.w3.org/2000/svg" viewBox="0 0 16 16">
 <path 
     style="fill:#4d4d4d" 
     d="M 3 3 L 3 13 L 5 13 L 5 12 L 4 12 L 4 4 L 12 4 L 12 7 L 12 11 L 13 11 L 13 7 L 13 3 L 3 3 z M 7 12 C 6.4477153 12 6 12.447723 6 13 C 6 13.552277 6.4477153 14 7 14 C 7.5522847 14 8 13.552277 8 13 C 8 12.447723 7.5522847 12 7 12 z M 10 12 C 9.4477153 12 9 12.447723 9 13 C 9 13.552277 9.4477153 14 10 14 C 10.552285 14 11 13.552277 11 13 C 11 12.447723 10.552285 12 10 12 z M 13 12 C 12.447715 12 12 12.447723 12 13 C 12 13.552277 12.447715 14 13 14 C 13.552285 14 14 13.552277 14 13 C 14 12.447723 13.552285 12 13 12 z "
     />
 <path 
     style="fill:#f47750" 
     d="M 2 2 L 2 14 L 5 14 L 5 13 L 3 13 L 3 3 L 13 3 L 13 11 L 14 11 L 14 7 L 14 2 L 2 2 z "
     />
 </svg>
